X: 83
T: Missa Ista est speciosa / Kyrie
N: Derived from Rue1018a-Missa_Ista_est_speciosa-Kyrie.krn
C: Pierre de la Rue
%%abc-version 2.0
%%abcx-abcm2ps-target-version 5.9.1 (29 Sep 2008)
%%abc-creator hum2abc beta
%%abcx-conversion-date 2019/02/17 08:01:13
%%abc-edited-by Jesse Rodin
%%abc-edited-by Chris Gage 05-16-2013
%%abcx-initial-encoding-date 2013/08/02/
%%humdrum-veritas 3636394285
%%humdrum-veritas-data 3888363669
%%linebreak <none>
%%barnumbers 0
L: 1/4
M: 4/2
Q: 1/2=120
V: 1 clef=treble
V: 2 clef=treble-8
V: 3 clef=treble-8
V: 4 clef=bass
V: 5 clef=bass
K: C
[V:1] E8 | 
[V:2] e8- | 
[V:3] B8- | 
[V:4] E,8 | 
[V:5] z8 | 
[V:1] G8 | 
[V:2] e8 | 
[V:3] B8 | 
[V:4] E,4E,4 | 
[V:5] z8 | 
[V:1] A4A4 | 
[V:2] c4d4 | 
[V:3] A8 | 
[V:4] F,8 | 
[V:5] z8 | 
[V:1] G3ABcB2- | 
[V:2] e8 | 
[V:3] B8- | 
[V:4] E,3F,G,A,G,2- | 
[V:5] z8 | 
[V:1] B2A3^GG2 | 
[V:2] d3cB4 | 
[V:3] B8 | 
[V:4] G,F,D,2E,4 | 
[V:5] z8 | 
[V:1] A8 | 
[V:2] A8 | 
[V:3] c8 | 
[V:4] z4E,4 | 
[V:5] A,,8 | 
[V:1] z8 | 
[V:2] z8 | 
[V:3] A6G2 | 
[V:4] E,6D,2 | 
[V:5] C,6B,,2 | 
[V:1] z8 | 
[V:2] z8 | 
[V:3] F4E4 | 
[V:4] C,4B,,4- | 
[V:5] A,,4G,,4 | 
[V:1] z4A4 | 
[V:2] z8 | 
[V:3] D6ED | 
[V:4] B,,2A,,G,,A,,4 | 
[V:5] F,,8 | 
[V:1] G4E2G2- | 
[V:2] e4B2e2- | 
[V:3] E8 | 
[V:4] B,,8 | 
[V:5] E,,8 | 
[V:1] GFE2D2G2 | 
[V:2] edc2B2e2 | 
[V:3] z8 | 
[V:4] z8 | 
[V:5] z8 | 
[V:1] A2c4B2- | 
[V:2] A4c2d2 | 
[V:3] z8 | 
[V:4] z8 | 
[V:5] z8 | 
[V:1] BAGFE2G2- | 
[V:2] e6dc | 
[V:3] E8 | 
[V:4] B,,4C,2B,,2- | 
[V:5] E,,8 | 
[V:1] GFE2D2C2 | 
[V:2] B4z4 | 
[V:3] D4G4- | 
[V:4] B,,A,,B,,C,D,2E,2- | 
[V:5] G,,3A,,B,,2C,2- | 
[V:1] D4C4 | 
[V:2] z8 | 
[V:3] G4A3B | 
[V:4] E,2D,2E,3D, | 
[V:5] C,2B,,2A,,2C,2- | 
[V:1] z8 | 
[V:2] z8 | 
[V:3] c2B2A4 | 
[V:4] E,F,G,4^F,2 | 
[V:5] C,B,,A,,G,,A,,4 | 
[V:1] G8 | 
[V:2] z2G3AB2 | 
[V:3] B8 | 
[V:4] G,3F,D,4 | 
[V:5] G,,8 | 
[V:1] E3FG2D2- | 
[V:2] c2G3ABc | 
[V:3] z8 | 
[V:4] z8 | 
[V:5] z8 | 
[V:1] DEFGA2G2- | 
[V:2] d3BcBAG | 
[V:3] z8 | 
[V:4] z8 | 
[V:5] z8 | 
[V:1] G2^F2G4 | 
[V:2] A4G4 | 
[V:3] z8 | 
[V:4] z8 | 
[V:5] z8 | 
[V:1] z2G2A2B2 | 
[V:2] z2c4B2 | 
[V:3] e8 | 
[V:4] E,8 | 
[V:5] C,3B,,A,,2G,,2 | 
[V:1] E2G2F2D2- | 
[V:2] c3BA2B2 | 
[V:3] e4d4- | 
[V:4] C,4D,4 | 
[V:5] A,,2E,,2F,,2G,,2 | 
[V:1] DEFGA2B2 | 
[V:2] G4z4 | 
[V:3] d4c2B2- | 
[V:4] D,3E,F,2G,2- | 
[V:5] B,,4A,,2G,,2 | 
[V:1] c4B4- | 
[V:2] z4d4 | 
[V:3] B2A2B4 | 
[V:4] G,2^F,2G,4- | 
[V:5] A,,4G,,2G,,2- | 
[V:1] B2G2A4 | 
[V:2] d2e3dd2 | 
[V:3] z2B4A2 | 
[V:4] G,4D,4 | 
[V:5] G,,2E,,2F,,4 | 
[V:1] G3AB2A2- | 
[V:2] e3dBcdc | 
[V:3] B2c2d4- | 
[V:4] z4D,4 | 
[V:5] E,,4z4 | 
[V:1] AGF2E2F2- | 
[V:2] A3Bc2A2 | 
[V:3] d4c4 | 
[V:4] D,E,F,G,A,2F,2 | 
[V:5] z8 | 
[V:1] F2E3DD2 | 
[V:2] B2G2A2F2 | 
[V:3] B4A4 | 
[V:4] G,3E,F,4 | 
[V:5] z8 | 
[V:1] E8- | 
[V:2] G4E3F | 
[V:3] B8- | 
[V:4] E,8- | 
[V:5] E,,8- | 
[V:1] E8 ||  
[V:2] G8 ||  
[V:3] B8 ||  
[V:4] E,8 ||  
[V:5] E,,8 ||  
[V:1]  [K:C] [K:clef=treble][M:2/1]z8 | 
[V:2]  [K:C] [K:clef=treble-8][M:2/1]z8 | 
[V:3]  [K:C] [K:clef=treble-8][M:2/1]z8 | 
[V:4]  [K:C] [K:clef=bass][M:2/1]E,8 | 
[V:5]  [K:C] [K:clef=bass][M:2/1]z4E,4- | 
[V:1] z8 | 
[V:2] z8 | 
[V:3] z8 | 
[V:4] E,8 | 
[V:5] E,2D,2C,2B,,2 | 
[V:1] z8 | 
[V:2] A8 | 
[V:3] z8 | 
[V:4] F,3E,F,G,A,2- | 
[V:5] A,,2D,4C,2- | 
[V:1] z8 | 
[V:2] A8 | 
[V:3] z8 | 
[V:4] A,2G,3^F,F,2 | 
[V:5] C,B,,A,,G,,A,,4 | 
[V:1] z8 | 
[V:2] B2d3cBA | 
[V:3] B8 | 
[V:4] G,4F,2G,2- | 
[V:5] G,,A,,B,,C,D,2E,2- | 
[V:1] z8 | 
[V:2] G2A4^G2 | 
[V:3] B8 | 
[V:4] G,2F,E,D,4 | 
[V:5] E,2D,C,B,,4 | 
[V:1] E8 | 
[V:2] A8- | 
[V:3] c8- | 
[V:4] E,3F,E,2A,2- | 
[V:5] A,,8- | 
[V:1] E8 | 
[V:2] A8 | 
[V:3] c8 | 
[V:4] A,2G,F,E,4 | 
[V:5] A,,8 | 
[V:1] F3EFGA2- | 
[V:2] z2A4F2 | 
[V:3] d8- | 
[V:4] D,8- | 
[V:5] z8 | 
[V:1] A2G3^FF2 | 
[V:2] _B3GA4 | 
[V:3] d8 | 
[V:4] D,8 | 
[V:5] z8 | 
[V:1] G8- | 
[V:2] G8 | 
[V:3] B3cded2- | 
[V:4] G,6F,E, | 
[V:5] G,,8- | 
[V:1] G8 | 
[V:2] z4d4 | 
[V:3] d2c4B2 | 
[V:4] F,E,D,C,D,4 | 
[V:5] G,,8 | 
[V:1] z4G4 | 
[V:2] e2e3dcB | 
[V:3] c8- | 
[V:4] C,8- | 
[V:5] C,8 | 
[V:1] A6G2 | 
[V:2] A3FA2B2 | 
[V:3] c8 | 
[V:4] C,8 | 
[V:5] F,,6G,,2 | 
[V:1] F2EDE2F2- | 
[V:2] c8- | 
[V:3] A8 | 
[V:4] z8 | 
[V:5] A,,2B,,2C,2F,,2 | 
[V:1] F2E3DD2 | 
[V:2] c4A4 | 
[V:3] G2E2F4 | 
[V:4] z8 | 
[V:5] C,4D,4 | 
[V:1] E4z2A2- | 
[V:2] z2c3BAG | 
[V:3] E8 | 
[V:4] z2C,3D,E,2 | 
[V:5] A,,8 | 
[V:1] ABc2B2G2- | 
[V:2] A2F2G2B2 | 
[V:3] z8 | 
[V:4] F,2A,2G,4 | 
[V:5] z8 | 
[V:1] G2F2G2E2- | 
[V:2] A4G2c2 | 
[V:3] z8 | 
[V:4] D,4E,4- | 
[V:5] z8 | 
[V:1] E2DCB,4 | 
[V:2] B2A3^G^G2 | 
[V:3] z8 | 
[V:4] E,4E,4 | 
[V:5] z8 | 
[V:1] A,8 | 
[V:2] A8- | 
[V:3] z8 | 
[V:4] z2E,4F,2- | 
[V:5] A,,3B,,C,2D,2- | 
[V:1] z8 | 
[V:2] A8 | 
[V:3] z8 | 
[V:4] F,2E,D,F,2E,2- | 
[V:5] D,2C,B,,A,,3B,, | 
[V:1] z8 | 
[V:2] z8 | 
[V:3] z8 | 
[V:4] E,2A,4G,2- | 
[V:5] C,2D,2C,B,,A,,G,, | 
[V:1] z8 | 
[V:2] z8 | 
[V:3] z8 | 
[V:4] G,2^F,2G,3=F, | 
[V:5] A,,4G,,4 | 
[V:1] z8 | 
[V:2] z8 | 
[V:3] G8- | 
[V:4] E,2D,C,D,4 | 
[V:5] z2C,4B,,2 | 
[V:1] z8 | 
[V:2] z2c4B2 | 
[V:3] G4F4 | 
[V:4] C,4z4 | 
[V:5] C,D,E,F,D,4 | 
[V:1] z8 | 
[V:2] c2BAGABc | 
[V:3] G8 | 
[V:4] z8 | 
[V:5] C,6B,,A,, | 
[V:1] z8 | 
[V:2] B2A4^G2 | 
[V:3] E4D4 | 
[V:4] z8 | 
[V:5] G,,2A,,2B,,4 | 
[V:1] z4E4 | 
[V:2] A8 | 
[V:3] E8 | 
[V:4] z4C,4 | 
[V:5] A,,8 | 
[V:1] G6F2 | 
[V:2] z8 | 
[V:3] E6F2 | 
[V:4] B,,2E,4D,2 | 
[V:5] E,,8 | 
[V:1] E3DC2B,2- | 
[V:2] z8 | 
[V:3] G2A4G2 | 
[V:4] C,3B,,A,,2E,2- | 
[V:5] z8 | 
[V:1] B,A,A,4^G,2 | 
[V:2] z8 | 
[V:3] A2c2B4 | 
[V:4] E,2C,2D,2E,2 | 
[V:5] z8 | 
[V:1] A,4E4 | 
[V:2] z4c4 | 
[V:3] A4E4 | 
[V:4] A,,4C,4 | 
[V:5] A,,8 | 
[V:1] G6F2 | 
[V:2] e6d2 | 
[V:3] E8- | 
[V:4] B,,8 | 
[V:5] E,,8- | 
[V:1] E2DCB,2E2- | 
[V:2] c2BAG2B2 | 
[V:3] E8 | 
[V:4] z4E,4 | 
[V:5] E,,8 | 
[V:1] E2D2C2B,2- | 
[V:2] c2B2c2G2 | 
[V:3] z8 | 
[V:4] G,8 | 
[V:5] E,8 | 
[V:1] B,A,A,4^G,2 | 
[V:2] B2c2d4 | 
[V:3] z8 | 
[V:4] F,2E,2D,4 | 
[V:5] D,2C,2B,,4 | 
[V:1] A,8- | 
[V:2] c8 | 
[V:3] A6G2 | 
[V:4] E,6C,2 | 
[V:5] A,,8- | 
[V:1] A,8 | 
[V:2] z2e4d2 | 
[V:3] F2E2F4 | 
[V:4] C,8- | 
[V:5] A,,8 | 
[V:1] z4E4 | 
[V:2] c2B2A4 | 
[V:3] E8 | 
[V:4] C,8 | 
[V:5] A,,8 | 
[V:1] G6E2 | 
[V:2] B8- | 
[V:3] E8- | 
[V:4] z4E,4 | 
[V:5] E,,8- | 
[V:1] E8 ||  
[V:2] B8 ||  
[V:3] E8 ||  
[V:4] G,8 ||  
[V:5] E,,8 ||  
[V:1]  [K:C] [K:clef=treble][M:4/2]E3FG2A2- | 
[V:2]  [K:C] [K:clef=treble-8][M:4/2]z8 | 
[V:3]  [K:C] [K:clef=treble-8][M:4/2]c8 | 
[V:4]  [K:C] [K:clef=bass][M:4/2]C,3D,E,2F,2- | 
[V:5]  [K:C] [K:clef=bass][M:4/2]z8 | 
[V:1] A2G2E2F2 | 
[V:2] z8 | 
[V:3] c8 | 
[V:4] F,2G,2A,4 | 
[V:5] z8 | 
[V:1] G4EFGE | 
[V:2] z8 | 
[V:3] B8 | 
[V:4] E,2G,4E,2 | 
[V:5] z8 | 
[V:1] F2E4D2 | 
[V:2] z8 | 
[V:3] A4A4 | 
[V:4] A,G,F,E,F,4 | 
[V:5] z8 | 
[V:1] G4F2E2- | 
[V:2] z8 | 
[V:3] BcdBc2B2- | 
[V:4] z2G,2A,G,F,E, | 
[V:5] z8 | 
[V:1] E2D2E4 | 
[V:2] z8 | 
[V:3] B2A2B4- | 
[V:4] F,4E,4- | 
[V:5] z8 | 
[V:1] z8 | 
[V:2] G3AB2c2- | 
[V:3] B4z4 | 
[V:4] E,8- | 
[V:5] E,,3F,,G,,2A,,2- | 
[V:1] z8 | 
[V:2] c2BAG2c2 | 
[V:3] z8 | 
[V:4] E,4z4 | 
[V:5] A,,B,,C,D,E,3C, | 
[V:1] z8 | 
[V:2] B2A3^G^G2 | 
[V:3] z8 | 
[V:4] z8 | 
[V:5] D,C,B,,A,,B,,4 | 
[V:1] E8 | 
[V:2] A8 | 
[V:3] z8 | 
[V:4] z4E,4- | 
[V:5] A,,8 | 
[V:1] G6FE | 
[V:2] z8 | 
[V:3] B8 | 
[V:4] E,4G,4- | 
[V:5] z8 | 
[V:1] D3EF2G2 | 
[V:2] z8 | 
[V:3] d6cB | 
[V:4] G,2F,E,D,3E, | 
[V:5] z8 | 
[V:1] A4E3F | 
[V:2] z8 | 
[V:3] A3Bc2d2 | 
[V:4] F,2G,2A,4 | 
[V:5] z8 | 
[V:1] GAB2c2B2- | 
[V:2] z8 | 
[V:3] e6d2 | 
[V:4] E,8- | 
[V:5] z8 | 
[V:1] BAA4^G2 | 
[V:2] z8 | 
[V:3] c2BAB4 | 
[V:4] E,8 | 
[V:5] z8 | 
[V:1] A8 | 
[V:2] A4A3G | 
[V:3] z8 | 
[V:4] z8 | 
[V:5] z2A,,3B,,C,2 | 
[V:1] z8 | 
[V:2] F2E2F4 | 
[V:3] z8 | 
[V:4] z8 | 
[V:5] D,2E,3D,D,2 | 
[V:1] z8 | 
[V:2] E2G3FE2 | 
[V:3] z8 | 
[V:4] z2E,3D,C,B,, | 
[V:5] E,4A,,3G,, | 
[V:1] z8 | 
[V:2] D2E4D2 | 
[V:3] z8 | 
[V:4] A,,2B,,4A,,2 | 
[V:5] F,,2E,,2F,,4 | 
[V:1] z2G3AB2 | 
[V:2] E8 | 
[V:3] B6G2 | 
[V:4] B,,8 | 
[V:5] E,,8 | 
[V:1] c2B3AGF | 
[V:2] z8 | 
[V:3] A2G2E4 | 
[V:4] z2E,3F,G,2 | 
[V:5] z8 | 
[V:1] E4z2G2 | 
[V:2] z8 | 
[V:3] z2G2A2c2- | 
[V:4] C,4F,2E,2 | 
[V:5] z8 | 
[V:1] A2c4B2 | 
[V:2] z8 | 
[V:3] c2e2d4 | 
[V:4] C,4G,4 | 
[V:5] z8 | 
[V:1] A3GE4 | 
[V:2] z2E2F2A2 | 
[V:3] c8 | 
[V:4] z2C,3D,E,F, | 
[V:5] z2A,,3B,,C,D, | 
[V:1] z8 | 
[V:2] G2c3BB2 | 
[V:3] z8 | 
[V:4] G,2A,2F,3G, | 
[V:5] E,2F,2D,4 | 
[V:1] G8 | 
[V:2] c6BA | 
[V:3] e8 | 
[V:4] G,4G,2E,2- | 
[V:5] C,8 | 
[V:1] E8 | 
[V:2] G4A4- | 
[V:3] c8 | 
[V:4] E,2C,2C,4- | 
[V:5] C,4A,,4- | 
[V:1] A6F2- | 
[V:2] A8- | 
[V:3] c4d4- | 
[V:4] C,4F,4- | 
[V:5] A,,4D,4- | 
[V:1] FED4DE | 
[V:2] A4G2B2 | 
[V:3] d4B4 | 
[V:4] F,4D,4 | 
[V:5] D,4G,,4 | 
[V:1] F2E4DC | 
[V:2] A3GE2A2 | 
[V:3] c8 | 
[V:4] C,8 | 
[V:5] A,,8 | 
[V:1] B,8 | 
[V:2] D8 | 
[V:3] d8- | 
[V:4] z2G,4F,E, | 
[V:5] G,,8- | 
[V:1] z2B4B2 | 
[V:2] z8 | 
[V:3] d8 | 
[V:4] D,2G,4G,2 | 
[V:5] G,,8 | 
[V:1] c3BA2G2- | 
[V:2] z8 | 
[V:3] c6B2 | 
[V:4] A,2F,4G,2 | 
[V:5] z8 | 
[V:1] G2F2G2E2- | 
[V:2] z4z2G2 | 
[V:3] A4G4 | 
[V:4] D,4z4 | 
[V:5] z2D,2E,2C,2- | 
[V:1] E2A2B2G2- | 
[V:2] A2c2B2e2- | 
[V:3] E2F2G4 | 
[V:4] C,4D,2E,2 | 
[V:5] C,B,,A,,2G,,2C,2- | 
[V:1] G2A2B2G2 | 
[V:2] edc2B4 | 
[V:3] E2F2G3F | 
[V:4] C,4D,2E,2 | 
[V:5] C,B,,A,,2G,,2E,,2 | 
[V:1] A2G2E4 | 
[V:2] z2e3dcA | 
[V:3] D2E4A2- | 
[V:4] A,,2B,,2C,3D, | 
[V:5] F,,2G,,2A,,4 | 
[V:1] E2G3EF2 | 
[V:2] B4c2A2 | 
[V:3] A2G2A3G | 
[V:4] B,,4z2C,2 | 
[V:5] E,,4z2A,,2 | 
[V:1] G3FD2E2- | 
[V:2] B4z4 | 
[V:3] E2G2F2E2 | 
[V:4] B,,2G,,2A,,2B,,2 | 
[V:5] G,,2E,,2F,,2G,,2 | 
[V:1] E2D2E4- | 
[V:2] z4z2A2 | 
[V:3] F4E4- | 
[V:4] C,2D,2A,,2C,2- | 
[V:5] A,,2B,,2C,2A,,2- | 
[V:1] E8- | 
[V:2] c6BA | 
[V:3] E8- | 
[V:4] C,2B,,A,,G,,3A,, | 
[V:5] A,,2G,,F,,E,,4- | 
[V:1] E8 |]  
[V:2] G3AB4 |]  
[V:3] E8 |]  
[V:4] B,,4B,,4 |]  
[V:5] E,,4E,,4 |]  



